X: 25447
T: Marcha Procesional De San Benito
R: polka
M: 2/4
K: Bminor
F/E/|:D2 DF/|A4|B3 c/d/|A2F3/2F/|F2 DE/F/|E4|
A3/2G/ F3/2E/|D2D3/2D/|D3F/E/|D2D3/2F/|A4|B3c/d/|
A2F2|F2 EF/E/|D2D3/2D/|1 D2F/E/:|2 D4||
|:F3 G/F/|D2ED/E/|F3G/F/|D2D2|E3F/E/|C2CD/E/|
F3G/F/E/|D4|F3G/F/|D2 DE/F/|G3A/G/|E2EF/G/|
F2DE/F/|E2CD/E/|D2D3/2D/|1 D4:|2 D||

